Newaita/actions/32/document-import.svg

<svg height="32" viewBox="0 0 32 32" width="32" xmlns="http://www.w3.org/2000/svg"><g fill="#424242"><path d="m5.285156 2.894531c-1.464844 0-2.644531 1.183594-2.644531 2.648438v21.167969c0 1.464843 1.179687 2.644531 2.644531 2.644531h15.878906c1.464844 0 2.644532-1.179688 2.644532-2.644531v-1.324219h-2.644532c0 .734375-.589843 1.324219-1.324218 1.324219h-13.230469c-.734375 0-1.324219-.589844-1.324219-1.324219v-18.523438c0-.730469.589844-1.320312 1.324219-1.320312h5.292969v-.007813h4.746094l4.519531 4.523438v.777344h2.632812v-1.324219c0-.351563-.136719-.683594-.382812-.929688l-5.292969-5.292969c-.246094-.246093-.582031-.386718-.933594-.386718h-5.289062v-.007813zm0 0"/><path d="m21.847656 16.789062v2.644532h6.597656c.367188 0 .660157-.292969.660157-.660156v-1.324219c0-.367188-.292969-.660157-.660157-.660157zm0 0"/><path d="m22.507812 22.742188v-9.261719l-6.613281 4.628906zm0 0"/></g></svg>

<?xml version="1.0" encoding="UTF-8"?>
<svg xmlns="http://www.w3.org/2000/svg" xmlns:xlink="http://www.w3.org/1999/xlink" width="32px" height="32px" viewBox="0 0 32 32" version="1.1">
<g id="surface1">
<path style=" stroke:none;fill-rule:nonzero;fill:rgb(25.882354%,25.882354%,25.882354%);fill-opacity:1;" d="M 5.285156 2.894531 C 3.820312 2.894531 2.640625 4.078125 2.640625 5.542969 L 2.640625 26.710938 C 2.640625 28.175781 3.820312 29.355469 5.285156 29.355469 L 21.164062 29.355469 C 22.628906 29.355469 23.808594 28.175781 23.808594 26.710938 L 23.808594 25.386719 L 21.164062 25.386719 C 21.164062 26.121094 20.574219 26.710938 19.839844 26.710938 L 6.609375 26.710938 C 5.875 26.710938 5.285156 26.121094 5.285156 25.386719 L 5.285156 6.863281 C 5.285156 6.132812 5.875 5.542969 6.609375 5.542969 L 11.902344 5.542969 L 11.902344 5.535156 L 16.648438 5.535156 L 21.167969 10.058594 L 21.167969 10.835938 L 23.800781 10.835938 L 23.800781 9.511719 C 23.800781 9.160156 23.664062 8.828125 23.417969 8.582031 L 18.125 3.289062 C 17.878906 3.042969 17.542969 2.902344 17.191406 2.902344 L 11.902344 2.902344 L 11.902344 2.894531 Z M 5.285156 2.894531 "/>
<path style=" stroke:none;fill-rule:nonzero;fill:rgb(25.882354%,25.882354%,25.882354%);fill-opacity:1;" d="M 21.847656 16.789062 L 21.847656 19.433594 L 28.445312 19.433594 C 28.8125 19.433594 29.105469 19.140625 29.105469 18.773438 L 29.105469 17.449219 C 29.105469 17.082031 28.8125 16.789062 28.445312 16.789062 Z M 21.847656 16.789062 "/>
<path style=" stroke:none;fill-rule:nonzero;fill:rgb(25.882354%,25.882354%,25.882354%);fill-opacity:1;" d="M 22.507812 22.742188 L 22.507812 13.480469 L 15.894531 18.109375 Z M 22.507812 22.742188 "/>
</g>
</svg>
